X:1
T:I Come to Thee
T:I Come to Thee
T:Lelia Naylor Morris
T:Lelia Naylor Morris, 1900
T:Public Domain Courtesy of the Cyber Hymnal™
C:Lelia Naylor Morris
Z:Public Domain
Z:Courtesy of the Cyber Hymnal™
%%score 1 ( 2 3 )
L:1/8
Q:1/4=100
M:4/4
K:Ab
V:1 treble 
V:2 bass 
V:3 bass 
V:1
 [CE]2 | [Ec]3 [Fd] [Ec][CA][A,C][B,D] | ([DF]4 [CE]2) [CA]2 | [EG]3 [EA] [EB][E=A][EB][Ed] | %4
w: 1.~Just|as I am I come to|Thee, * My-|self I can- not bet- ter|
w: 2.~Just|as I am, yet this I|know, * The|blood will all- suf- fi- cient|
w: 3.~Just|as I am I come to-|day, * My|hun- gry soul cries out for|
w: 4.~Just|as I am, my Life, my|Love, * My|soul here finds a per- fect|
 [Ec]6 [CE]2 | [CA]3 [DB] [Ec][_Ge][FA][_Fd] | ([Ec]4 [CA]2) [Ec]2 | [FB]3 [Fd] [Ec][FB][EA][DG] | %8
w: make; The|pre- cious blood my on- ly|plea, * Oh,|save me for Thy mer- cy’s|
w: be; I|shall be whit- er than the|snow, * Made|ful- ly whole in trust- ing|
w: Thee; I|can no long- er stay a-|way, * Thine,|whol- ly Thine, I long to|
w: rest; While,|like the wea- ry, wan- dering|dove, * Safe|fold- ed in Thy love I|
 [CA]6 ||"^Refrain" [CE]2 | [DB]6 [Ec]2 | [CA]6 [CE]2 | [Ed]3 [Ec] [EB][Ec] [Ee]>[Ed] | %13
w: sake.|||||
w: Thee.|Just|as I|am, Just|as I am I come to|
w: be.|||||
w: rest.|||||
 [Ec]6 [CE]2 | [Ee]3 [Ee] [Ed]2 [Ec]2 | [FB]2 [FA]2 [DF]3 [Fd] | [Ec]3 [CA] [Ec][DB] [CA]>[B,G] | %17
w: ||||
w: Thee; Oh,|hear me, bless me,|save me, Lord, Just|as I am I come to|
w: ||||
w: ||||
 [CA]6 |] %18
w: |
w: Thee.|
w: |
w: |
V:2
 [A,,A,]2 | [A,,A,]3 [A,,A,] [A,,A,][A,,E,][A,,E,][A,,E,] | [A,,A,]6 [A,,A,]2 | %3
w: ~|~ ~ ~ ~ ~ ~|~ ~|
 [E,B,]3 [E,C] [E,D][D,C][D,D][E,G,] | [A,,A,]6 [A,,A,]2 | %5
w: ~ ~ ~ ~ ~ ~|~ ~|
 [A,,A,]3 [A,,A,] [A,,A,][A,,A,][D,A,][D,A,] | [A,,A,]6 [A,,A,]2 | %7
w: ~ ~ ~ ~ ~ ~|~ ~|
 [D,A,]3 [B,,B,] [C,E][D,D][E,C][E,B,] | [A,,A,]6 || z2 | z3/2 [E,G,]/ [E,G,][E,G,] [E,G,]2 z2 | %11
w: ~ ~ ~ ~ ~ ~|~||Just as I am,|
 z3/2 [A,,A,]/ [A,,A,][A,,F,] [A,,E,]2 A,2 | [E,B,]3 [E,A,] [E,G,][E,A,] [E,C]>[E,B,] | %13
w: Just as I am, ~|~ ~ ~ ~ ~ ~|
 A,>A, [E,A,][C,A,] [A,,A,]2 A,2 | [A,C]3 [A,C] [G,B,]2 A,2 | [D,D]2 [D,D]2 [D,A,]3 [D,A,] | %16
w: ~ I come to Thee; *|||
 [E,A,]3 E, [E,A,][E,G,] E,>E, | [A,,E,]6 |] %18
w: ||
V:3
 x2 | x8 | x8 | x8 | x8 | x8 | x8 | x8 | x6 || x2 | x8 | x6 A,2 | x8 | A,>A, x7/2 A,2 x/ | x6 A,2 | %15
 x8 | x3 E, x E,>E, x | x6 |] %18

